X:1
T:Title
%%score 1 2
L:1/8
Q:1/4=90
M:4/4
K:G
V:1 treble nm="Strings 1, Treble"
V:2 bass nm="Strings 1, Bass"
V:1
 [DG]>[DG] [DG]>[DA] [DG]2 D2 | [DG]>[DA] [GB]>[Gc] [Gd]4 | [Fc]>[Fc] [Fc]2 [DB]>[DB] [DB]2 | %3
w: 1.~Have~ we~ learned~ the~ se cret~|of~ the~ Chris tian's~ pow'r?~|Vic to ry,~ vic to ry,~|
 [DA]>[DA] [EG]>[EG] [FA]4 | [DG]>[DG] [DG]>[DA] [DG]2 D2 | [DG]>[DA] [GB]>[Gc] [Gd]4 | %6
w: all~ the~ way~ a long;~|List 'ning~ and~ o bey ing,~|trust ing~ eve ry~ hour,~|
 [Gc]>[Gc] [Gc]2 [GB]>[DA] [DG]>[GB] | [FA]4 [DG]4 | [Gd]>[Gd] [Gd]2 [Ge]>[Ge] [Ge]2 | %9
w: Vic to ry~ all~ a long~ through~|Je sus.~||
 [Gd]>[Gd] [Fd]>[Fc] [GB]4 | [Ac]>[Ac] [Ac]>[GB] [FA]2 [FA]2 | [GB]>[GB] [G^c]>[Gc] [Fd]4 | %12
w: |||
 [Gd]>[Gd] [Gd]>[Ge] [Gd]2 [GB]2 | [Gc]>[Gc] [Gc]>[Gc] [Ge]4 | [Gd]>[Gd] [Gd]>[Ge] [Gd]2 [GB]2 | %15
w: |||
 [Fc]>[Fc] [FB]>[FA] [DG]4 |] %16
w: |
V:2
 [G,B,]>[G,B,] [G,B,]>[G,C] [G,B,]2 [G,B,]2 | [G,B,]>[G,C] [G,D]>[G,D] [G,B,]4 | %2
 [D,A,]>[D,A,] [D,A,]2 G,>G, G,2 | [F,A,]>[F,A,] [E,^C]>[E,C] [D,D]4 | %4
 [G,B,]>[G,B,] [G,B,]>[G,C] [G,B,]2 [G,B,]2 | [G,B,]>[G,C] [G,D]>[G,D] [G,B,]4 | %6
 [C,E]>[C,E] [C,E]2 [D,D]>[D,C] [D,B,]>[D,D] | [D,C]4 [G,B,]4 | %8
 [G,B,]>[G,B,] [G,B,]2 [C,C]>[C,C] [C,C]2 | [D,B,]>[D,B,] [D,A,]>[D,D] [G,D]4 | %10
 [D,D]>[D,D] [D,D]>[D,D] [D,D]2 [D,D]2 | [G,D]>[G,D] [E,A,]>[E,A,] [D,A,]4 | %12
 [G,B,]>[G,B,] [G,B,]>[G,C] [G,B,]2 [G,D]2 | [C,E]>[C,E] [C,E]>[C,E] [C,C]4 | %14
 [D,B,]>[D,B,] [D,B,]>[D,C] [D,B,]2 [D,D]2 | [D,A,]>[D,A,] [D,D]>[D,C] [G,,G,B,]4 |] %16

